X: 13979
T: Francie Welsh's
R: barndance
M: 4/4
K: Dmajor
A2 d2 (3DFA d>f|e<^de<g B2 e>d|c>de>f g<eB>c|(3dfe (3dcB A2 (3EFG|
A2 d2 (3DFA d>f|e<^de<g B2 e>d|c>de>f g<eB>c|d2 f2 d2:|
(3ecA (3EAc e2 a>^g|(3fdA (3FAd f2 a2|(3^gbg f2 (3ege d2|(3cec B>^G (3ABA (3EF=G|
A2 d2 (3DFA d>f|e<^de<g B2 e>d|c2 (3def g<e (3ABc|d2 A2 D2||

